; generated by PrusaSlicer 2.8.0+win64 on 2024-08-25 at 13:04:53 UTC

; 

; external perimeters extrusion width = 0.23mm
; perimeters extrusion width = 0.23mm
; infill extrusion width = 0.23mm
; solid infill extrusion width = 0.23mm
; top infill extrusion width = 0.20mm
; first layer extrusion width = 0.40mm

;TYPE:Custom
G28
G1 Z5 F5000
G21 ; set units to millimeters
G90 ; use absolute coordinates
; Filament gcode
M107
;LAYER_CHANGE
;Z:0.2
;HEIGHT:0.2
G1 X107.24 Y69.295
G1 Z.2 F7800
;TYPE:External perimeter
;WIDTH:0.344118
G1 F1800
G1 X107.217 Y69.222
G1 X107.046 Y69.201
G1 X106.944 Y69.27
G1 X106.97 Y69.47
G1 X107.086 Y69.508
G1 X107.218 Y69.457
G1 X107.24 Y69.295
G1 X108.651 Y68.59 F7800
;WIDTH:0.344223
G1 F1800
G1 X108.628 Y68.517
G1 X108.434 Y68.484
G1 X108.356 Y68.578
G1 X108.381 Y68.764
G1 X108.498 Y68.802
G1 X108.629 Y68.751
G1 X108.651 Y68.59
G1 X108.651 Y68.59 F7800
G1 X108.651 Y70.001
G1 F1800
G1 X108.628 Y69.928
G1 X108.434 Y69.895
G1 X108.356 Y69.989
G1 X108.381 Y70.175
G1 X108.498 Y70.213
G1 X108.629 Y70.163
G1 X108.651 Y70.001
;WIPE_START
G1 F6240
G1 X108.629 Y70.163
G1 X108.498 Y70.213
G1 X108.381 Y70.175
G1 X108.356 Y69.989
G1 X108.434 Y69.895
G1 X108.628 Y69.928
G1 X108.651 Y70.001
;WIPE_END
G1 Z2.2 F7800
G1 X210.968 Y68.632
G1 Z.2
;WIDTH:0.343567
G1 F1800
G1 X210.936 Y68.511
G1 X210.802 Y68.47
G1 X210.688 Y68.533
G1 X210.673 Y68.72
G1 X210.8 Y68.829
G1 X210.95 Y68.741
G1 X210.968 Y68.632
G1 X210.968 Y68.632 F7800
G1 X210.62 Y69.321
;WIDTH:0.355051
G1 F1800
G1 X210.803 Y69.14
G1 X210.946 Y69.257
G1 X210.937 Y69.45
G1 X210.818 Y69.53
G1 X210.732 Y69.485
G1 X210.637 Y69.345
G1 X210.637 Y69.345 F7800
G1 X210.315 Y69.347
;WIDTH:0.355982
G1 F1800
G1 X210.118 Y69.545
G1 X210.044 Y69.506
G1 X209.954 Y69.376
G1 X210.02 Y69.212
G1 X210.17 Y69.192
G1 X210.295 Y69.325
G1 X210.295 Y69.325 F7800
G1 X210.098 Y69.857
;WIDTH:0.355122
G1 F1800
G1 X210.189 Y69.903
G1 X210.306 Y70.066
G1 X210.117 Y70.252
G1 X209.977 Y70.131
G1 X209.987 Y69.938
G1 X210.074 Y69.875
G1 X210.074 Y69.875 F7800
G1 X210.097 Y70.561
;WIDTH:0.35396
G1 F1800
G1 X210.188 Y70.608
;WIDTH:0.354787
G1 X210.307 Y70.774
G1 X210.14 Y70.943
G1 X210.055 Y70.9
G1 X209.977 Y70.813
G1 X209.963 Y70.668
;WIDTH:0.35396
G1 X210.073 Y70.58
G1 X210.073 Y70.58 F7800
G1 X210.806 Y70.55
;WIDTH:0.355995
G1 F1800
G1 X210.88 Y70.589
G1 X210.97 Y70.718
G1 X210.905 Y70.882
G1 X210.754 Y70.902
G1 X210.609 Y70.747
G1 X210.785 Y70.571
G1 X210.785 Y70.571 F7800
G1 X210.62 Y70.026
;WIDTH:0.355368
G1 F1800
G1 X210.807 Y69.843
G1 X210.947 Y69.963
G1 X210.937 Y70.156
G1 X210.824 Y70.239
G1 X210.732 Y70.19
G1 X210.637 Y70.051
G1 X210.637 Y70.051 F7800
G1 X210.115 Y71.251
;WIDTH:0.343033
G1 F1800
G1 X210.244 Y71.352
G1 X210.251 Y71.549
G1 X210.106 Y71.67
G1 X210.031 Y71.616
G1 X209.966 Y71.503
G1 X209.977 Y71.374
G1 X210.093 Y71.271
G1 X210.093 Y71.271 F7800
G1 X210.099 Y71.953
;WIDTH:0.342639
G1 F1800
G1 X210.201 Y72.006
G1 X210.262 Y72.133
G1 X210.226 Y72.289
;WIDTH:0.342525
G1 X210.088 Y72.318
G1 X209.957 Y72.247
;WIDTH:0.342639
G1 X209.989 Y72.074
G1 X210.079 Y71.975
;WIPE_START
G1 F6240
G1 X210.099 Y71.953
G1 X210.201 Y72.006
G1 X210.262 Y72.133
G1 X210.226 Y72.289
G1 X210.088 Y72.318
G1 X209.957 Y72.247
G1 X209.989 Y72.074
G1 X210.079 Y71.975
;WIPE_END
G1 Z2.2 F7800
G1 X196.161 Y81.344
G1 Z.2
;WIDTH:0.340659
G1 F1800
G1 X196.126 Y81.218
G1 X195.945 Y81.193
G1 X195.881 Y81.216
G1 X195.852 Y81.384
G1 X195.909 Y81.485
G1 X196.129 Y81.455
G1 X196.161 Y81.344
;WIPE_START
G1 F6240
G1 X196.129 Y81.455
G1 X195.909 Y81.485
G1 X195.852 Y81.384
G1 X195.881 Y81.216
G1 X195.945 Y81.193
G1 X196.126 Y81.218
G1 X196.161 Y81.344
;WIPE_END
G1 Z2.2 F7800
G1 X195.498 Y78.514
G1 Z.2
;WIDTH:0.344407
G1 F1800
G1 X195.37 Y78.366
G1 X195.21 Y78.372
G1 X195.142 Y78.454
G1 X195.181 Y78.635
G1 X195.314 Y78.676
G1 X195.447 Y78.592
G1 X195.498 Y78.514
G1 X195.498 Y78.514 F7800
G1 X196.15 Y78.511
;WIDTH:0.347964
G1 F1800
G1 X196.094 Y78.378
G1 X195.947 Y78.365
G1 X195.844 Y78.446
G1 X195.792 Y78.515
G1 X195.899 Y78.636
G1 X196.075 Y78.661
G1 X196.15 Y78.511
G1 X196.15 Y78.511 F7800
G1 X197.572 Y78.522
;WIDTH:0.340649
G1 F1800
G1 X197.537 Y78.396
G1 X197.356 Y78.371
G1 X197.292 Y78.394
G1 X197.264 Y78.562
G1 X197.32 Y78.663
G1 X197.54 Y78.633
G1 X197.572 Y78.522
;WIPE_START
G1 F6240
G1 X197.54 Y78.633
G1 X197.32 Y78.663
G1 X197.264 Y78.562
G1 X197.292 Y78.394
G1 X197.356 Y78.371
G1 X197.537 Y78.396
G1 X197.572 Y78.522
;WIPE_END
G1 Z2.2 F7800
G1 X199.524 Y75.892
G1 Z.2
;WIDTH:0.343413
G1 F1800
G1 X199.661 Y75.794
G1 X199.665 Y75.601
G1 X199.565 Y75.533
G1 X199.404 Y75.573
G1 X199.38 Y75.717
G1 X199.443 Y75.835
G1 X199.524 Y75.892
G1 X199.524 Y75.892 F7800
G1 X199.527 Y76.191
;WIDTH:0.342457
G1 F1800
G1 X199.665 Y76.313
;WIDTH:0.343706
G1 X199.653 Y76.51
G1 X199.52 Y76.607
G1 X199.446 Y76.554
G1 X199.382 Y76.443
G1 X199.393 Y76.313
;WIDTH:0.342457
G1 X199.505 Y76.212
G1 X199.505 Y76.212 F7800
G1 X199.633 Y76.965
;WIDTH:0.345183
G1 F1800
G1 X199.688 Y77.108
G1 X199.611 Y77.247
G1 X199.509 Y77.266
G1 X199.375 Y77.185
G1 X199.408 Y77.009
G1 X199.516 Y76.893
G1 X199.608 Y76.949
;WIPE_START
G1 F6240
G1 X199.633 Y76.965
G1 X199.688 Y77.108
G1 X199.611 Y77.247
G1 X199.509 Y77.266
G1 X199.375 Y77.185
G1 X199.408 Y77.009
G1 X199.516 Y76.893
G1 X199.608 Y76.949
;WIPE_END
G1 Z2.2 F7800
G1 X201.786 Y74.897
G1 Z.2
;WIDTH:0.35085
G1 F1800
G1 X201.642 Y74.828
G1 X201.504 Y74.901
G1 X201.45 Y74.975
G1 X201.559 Y75.132
G1 X201.649 Y75.179
G1 X201.779 Y75.072
G1 X201.786 Y74.897
G1 X201.786 Y74.897 F7800
G1 X201.141 Y74.995
;WIDTH:0.354257
G1 F1800
G1 X200.945 Y75.191
G1 X200.805 Y75.07
G1 X200.816 Y74.868
G1 X200.883 Y74.838
G1 X201.043 Y74.857
G1 X201.124 Y74.971
G1 X201.124 Y74.971 F7800
G1 X200.93 Y75.503
;WIDTH:0.353915
G1 F1800
G1 X201.012 Y75.545
;WIDTH:0.3548
G1 X201.134 Y75.711
G1 X200.966 Y75.881
G1 X200.825 Y75.81
G1 X200.791 Y75.638
;WIDTH:0.353915
G1 X200.908 Y75.524
G1 X200.908 Y75.524 F7800
G1 X201.633 Y75.489
;WIDTH:0.355989
G1 F1800
G1 X201.708 Y75.528
G1 X201.798 Y75.657
G1 X201.732 Y75.821
G1 X201.582 Y75.841
G1 X201.437 Y75.686
G1 X201.612 Y75.51
G1 X201.612 Y75.51 F7800
G1 X200.944 Y76.198
;WIDTH:0.346515
G1 F1800
G1 X201.021 Y76.255
G1 X201.079 Y76.359
G1 X201.065 Y76.478
;WIDTH:0.346158
G1 X200.937 Y76.606
G1 X200.789 Y76.451
;WIDTH:0.346515
G1 X200.8 Y76.295
G1 X200.919 Y76.215
G1 X200.919 Y76.215 F7800
G1 X200.932 Y76.894
;WIDTH:0.342182
G1 F1800
G1 X201.077 Y77
G1 X201.078 Y77.203
;WIDTH:0.341056
G1 X200.96 Y77.269
G1 X200.806 Y77.21
;WIDTH:0.342182
G1 X200.803 Y77.008
G1 X200.909 Y76.914
;WIPE_START
G1 F6240
G1 X200.932 Y76.894
G1 X201.077 Y77
G1 X201.078 Y77.203
G1 X200.96 Y77.269
G1 X200.806 Y77.21
G1 X200.803 Y77.008
G1 X200.909 Y76.914
;WIPE_END
G1 Z2.2 F7800
G1 X194.573 Y117.833
G1 Z.2
;WIDTH:0.354564
G1 F1800
G1 X194.453 Y117.925
G1 X194.433 Y118.086
G1 X194.532 Y118.162
G1 X194.68 Y118.147
G1 X194.782 Y118.041
G1 X194.667 Y117.881
G1 X194.573 Y117.833
;WIPE_START
G1 F6240
G1 X194.667 Y117.881
G1 X194.782 Y118.041
G1 X194.68 Y118.147
G1 X194.532 Y118.162
G1 X194.433 Y118.086
G1 X194.453 Y117.925
G1 X194.573 Y117.833
;WIPE_END
G1 Z2.2 F7800
G1 X204.96 Y113.79
G1 Z.2
;WIDTH:0.345946
G1 F1800
G1 X205.078 Y113.917
G1 X205.248 Y113.94
G1 X205.323 Y113.811
G1 X205.295 Y113.695
G1 X205.176 Y113.628
G1 X205.011 Y113.717
G1 X204.96 Y113.79
;WIPE_START
G1 F6240
G1 X205.011 Y113.717
G1 X205.176 Y113.628
G1 X205.295 Y113.695
G1 X205.323 Y113.811
G1 X205.248 Y113.94
G1 X205.078 Y113.917
G1 X204.96 Y113.79
;WIPE_END
G1 Z2.2 F7800
G1 X200.92 Y106.538
G1 Z.2
;WIDTH:0.349068
G1 F1800
G1 X200.806 Y106.66
G1 X200.787 Y106.812
G1 X200.9 Y106.888
G1 X201.07 Y106.847
G1 X201.095 Y106.723
G1 X201.037 Y106.593
G1 X200.92 Y106.538
;WIPE_START
G1 F6240
G1 X201.037 Y106.593
G1 X201.095 Y106.723
G1 X201.07 Y106.847
G1 X200.9 Y106.888
G1 X200.787 Y106.812
G1 X200.806 Y106.66
G1 X200.92 Y106.538
;WIPE_END
G1 Z2.2 F7800
G1 X203.066 Y99.875
G1 Z.2
;WIDTH:0.353648
G1 F1800
G1 X203.201 Y99.714
G1 X203.164 Y99.549
G1 X202.991 Y99.531
G1 X202.869 Y99.683
G1 X202.971 Y99.825
G1 X203.066 Y99.875
;WIPE_START
G1 F6240
G1 X202.971 Y99.825
G1 X202.869 Y99.683
G1 X202.991 Y99.531
G1 X203.164 Y99.549
G1 X203.201 Y99.714
G1 X203.066 Y99.875
;WIPE_END
G1 Z2.2 F7800
G1 X206.58 Y97.045
G1 Z.2
;WIDTH:0.348182
G1 F1800
G1 X206.727 Y96.93
G1 X206.733 Y96.794
G1 X206.583 Y96.71
;WIDTH:0.347626
G1 X206.482 Y96.721
G1 X206.421 Y96.884
G1 X206.462 Y96.98
;WIDTH:0.348182
G1 X206.58 Y97.045
;WIPE_START
G1 F6240
G1 X206.462 Y96.98
G1 X206.421 Y96.884
G1 X206.482 Y96.721
G1 X206.583 Y96.71
G1 X206.733 Y96.794
G1 X206.727 Y96.93
G1 X206.58 Y97.045
;WIPE_END
G1 Z2.2 F7800
G1 X210.1 Y94.546
G1 Z.2
;WIDTH:0.345752
G1 F1800
G1 X209.966 Y94.66
G1 X209.982 Y94.858
G1 X210.105 Y94.909
G1 X210.226 Y94.857
G1 X210.268 Y94.692
G1 X210.184 Y94.586
G1 X210.1 Y94.546
;WIPE_START
G1 F6240
G1 X210.184 Y94.586
G1 X210.268 Y94.692
G1 X210.226 Y94.857
G1 X210.105 Y94.909
G1 X209.982 Y94.858
G1 X209.966 Y94.66
G1 X210.1 Y94.546
;WIPE_END
G1 Z2.2 F7800
G1 X212.225 Y95.246
G1 Z.2
;WIDTH:0.350317
G1 F1800
G1 X212.09 Y95.346
G1 X212.07 Y95.51
G1 X212.187 Y95.604
G1 X212.363 Y95.551
G1 X212.374 Y95.372
G1 X212.225 Y95.246
;WIPE_START
G1 F6240
G1 X212.374 Y95.372
G1 X212.363 Y95.551
G1 X212.187 Y95.604
G1 X212.07 Y95.51
G1 X212.09 Y95.346
G1 X212.225 Y95.246
;WIPE_END
G1 Z2.2 F7800
G1 X210.126 Y91.409
G1 Z.2
;WIDTH:0.356376
G1 F1800
G1 X210.261 Y91.267
G1 X210.223 Y91.121
G1 X210.133 Y91.054
G1 X209.986 Y91.098
G1 X209.919 Y91.201
G1 X210.028 Y91.358
G1 X210.126 Y91.409
;WIPE_START
G1 F6240
G1 X210.028 Y91.358
G1 X209.919 Y91.201
G1 X209.986 Y91.098
G1 X210.133 Y91.054
G1 X210.223 Y91.121
G1 X210.261 Y91.267
G1 X210.126 Y91.409
;WIPE_END
G1 Z2.2 F7800
G1 X200.953 Y87.881
G1 Z.2
;WIDTH:0.356472
G1 F1800
G1 X201.089 Y87.739
G1 X201.051 Y87.593
G1 X200.96 Y87.526
G1 X200.814 Y87.57
G1 X200.747 Y87.674
G1 X200.855 Y87.83
G1 X200.953 Y87.881
G1 X200.953 Y87.881 F7800
G1 X199.538 Y86.472
;WIDTH:0.34912
G1 F1800
G1 X199.656 Y86.368
G1 X199.653 Y86.171
G1 X199.512 Y86.115
G1 X199.376 Y86.209
G1 X199.339 Y86.277
G1 X199.441 Y86.421
G1 X199.538 Y86.472
;WIPE_START
G1 F6240
G1 X199.441 Y86.421
G1 X199.339 Y86.277
G1 X199.376 Y86.209
G1 X199.512 Y86.115
G1 X199.653 Y86.171
G1 X199.656 Y86.368
G1 X199.538 Y86.472
;WIPE_END
G1 Z2.2 F7800
G1 X193.871 Y88.201
G1 Z.2
;WIDTH:0.353099
G1 F1800
G1 X193.756 Y88.304
G1 X193.744 Y88.44
G1 X193.816 Y88.543
G1 X194.006 Y88.509
G1 X194.075 Y88.403
G1 X193.961 Y88.247
G1 X193.871 Y88.201
;WIPE_START
G1 F6240
G1 X193.961 Y88.247
G1 X194.075 Y88.403
G1 X194.006 Y88.509
G1 X193.816 Y88.543
G1 X193.744 Y88.44
G1 X193.756 Y88.304
G1 X193.871 Y88.201
;WIPE_END
G1 Z2.2 F7800
G1 X192.456 Y86.083
G1 Z.2
;WIDTH:0.353371
G1 F1800
G1 X192.323 Y86.24
G1 X192.338 Y86.383
G1 X192.479 Y86.424
G1 X192.59 Y86.393
G1 X192.656 Y86.272
G1 X192.55 Y86.13
G1 X192.456 Y86.083
G1 X192.456 Y86.083 F7800
G1 X191.751 Y84.672
;WIDTH:0.353405
G1 F1800
G1 X191.617 Y84.831
G1 X191.655 Y84.996
G1 X191.828 Y85.014
G1 X191.951 Y84.861
G1 X191.844 Y84.719
G1 X191.751 Y84.672
G1 X191.751 Y84.672 F7800
G1 X191.268 Y83.458
;WIDTH:0.34539
G1 F1800
G1 X191.141 Y83.31
G1 X190.943 Y83.326
G1 X190.892 Y83.448
G1 X190.944 Y83.57
G1 X191.061 Y83.615
G1 X191.214 Y83.536
G1 X191.268 Y83.458
G1 X191.268 Y83.458 F7800
G1 X190.154 Y84.864
;WIDTH:0.354512
G1 F1800
G1 X190.289 Y85.014
G1 X190.423 Y85.014
G1 X190.506 Y84.864
G1 X190.423 Y84.714
G1 X190.263 Y84.728
G1 X190.154 Y84.864
G1 X188.973 Y85.053 F7800
;WIDTH:0.356453
G1 F1800
G1 X189.148 Y84.874
G1 X189.007 Y84.715
G1 X188.829 Y84.751
G1 X188.787 Y84.864
G1 X188.831 Y84.982
G1 X188.973 Y85.053
;WIPE_START
G1 F6240
G1 X188.831 Y84.982
G1 X188.787 Y84.864
G1 X188.829 Y84.751
G1 X189.007 Y84.715
G1 X189.148 Y84.874
G1 X188.973 Y85.053
;WIPE_END
G1 Z2.2 F7800
G1 X187.721 Y87.69
G1 Z.2
;WIDTH:0.346696
G1 F1800
G1 X187.61 Y87.553
G1 X187.499 Y87.535
G1 X187.403 Y87.581
G1 X187.4 Y87.787
G1 X187.529 Y87.85
G1 X187.676 Y87.787
G1 X187.721 Y87.69
;WIPE_START
G1 F6240
G1 X187.676 Y87.787
G1 X187.529 Y87.85
G1 X187.4 Y87.787
G1 X187.403 Y87.581
G1 X187.499 Y87.535
G1 X187.61 Y87.553
G1 X187.721 Y87.69
;WIPE_END
G1 Z2.2 F7800
G1 X190.555 Y93.331
G1 Z.2
;WIDTH:0.350414
G1 F1800
G1 X190.455 Y93.195
G1 X190.291 Y93.175
G1 X190.197 Y93.292
G1 X190.251 Y93.468
G1 X190.429 Y93.478
G1 X190.555 Y93.331
;WIPE_START
G1 F6240
G1 X190.429 Y93.478
G1 X190.251 Y93.468
G1 X190.197 Y93.292
G1 X190.291 Y93.175
G1 X190.455 Y93.195
G1 X190.555 Y93.331
;WIPE_END
G1 Z2.2 F7800
G1 X189.847 Y95.431
G1 Z.2
;WIDTH:0.349071
G1 F1800
G1 X189.725 Y95.317
G1 X189.573 Y95.297
G1 X189.497 Y95.411
G1 X189.537 Y95.581
G1 X189.662 Y95.606
G1 X189.791 Y95.547
G1 X189.847 Y95.431
;WIPE_START
G1 F6240
G1 X189.791 Y95.547
G1 X189.662 Y95.606
G1 X189.537 Y95.581
G1 X189.497 Y95.411
G1 X189.573 Y95.297
G1 X189.725 Y95.317
G1 X189.847 Y95.431
;WIPE_END
G1 Z2.2 F7800
G1 X193.187 Y92.111
G1 Z.2
;WIDTH:0.357958
G1 F1800
G1 X193.309 Y92.019
G1 X193.329 Y91.866
G1 X193.219 Y91.773
G1 X193.078 Y91.789
G1 X192.986 Y91.906
G1 X193.096 Y92.063
G1 X193.187 Y92.111
G1 X194.573 Y93.141 F7800
;WIDTH:0.357607
G1 F1800
G1 X194.454 Y93.231
G1 X194.434 Y93.384
G1 X194.544 Y93.477
G1 X194.685 Y93.461
G1 X194.778 Y93.343
G1 X194.66 Y93.185
G1 X194.573 Y93.141
;WIPE_START
G1 F6240
G1 X194.66 Y93.185
G1 X194.778 Y93.343
G1 X194.685 Y93.461
G1 X194.544 Y93.477
G1 X194.434 Y93.384
G1 X194.454 Y93.231
G1 X194.573 Y93.141
;WIPE_END
G1 Z2.2 F7800
G1 X196.699 Y92.129
G1 Z.2
;WIDTH:0.345396
G1 F1800
G1 X196.847 Y92.001
G1 X196.831 Y91.804
G1 X196.708 Y91.753
G1 X196.587 Y91.804
G1 X196.541 Y91.921
G1 X196.621 Y92.074
G1 X196.699 Y92.129
;WIPE_START
G1 F6240
G1 X196.621 Y92.074
G1 X196.541 Y91.921
G1 X196.587 Y91.804
G1 X196.708 Y91.753
G1 X196.831 Y91.804
G1 X196.847 Y92.001
G1 X196.699 Y92.129
;WIPE_END
G1 Z2.2 F7800
G1 X193.162 Y99.488
G1 Z.2
;WIDTH:0.353407
G1 F1800
G1 X193.028 Y99.647
G1 X193.066 Y99.813
G1 X193.239 Y99.831
G1 X193.362 Y99.677
G1 X193.255 Y99.536
G1 X193.162 Y99.488
G1 X193.162 Y99.488 F7800
G1 X192.474 Y100.589
;WIDTH:0.353909
G1 F1800
G1 X192.622 Y100.452
G1 X192.587 Y100.257
G1 X192.445 Y100.229
G1 X192.334 Y100.294
G1 X192.32 Y100.451
G1 X192.474 Y100.589
;WIPE_START
G1 F6240
G1 X192.32 Y100.451
G1 X192.334 Y100.294
G1 X192.445 Y100.229
G1 X192.587 Y100.257
G1 X192.622 Y100.452
G1 X192.474 Y100.589
;WIPE_END
G1 Z2.2 F7800
G1 X191.046 Y105.134
G1 Z.2
;WIDTH:0.354084
G1 F1800
G1 X190.913 Y105.274
G1 X190.944 Y105.439
G1 X191.102 Y105.469
G1 X191.212 Y105.414
G1 X191.253 Y105.337
G1 X191.134 Y105.178
G1 X191.046 Y105.134
;WIPE_START
G1 F6240
G1 X191.134 Y105.178
G1 X191.253 Y105.337
G1 X191.212 Y105.414
G1 X191.102 Y105.469
G1 X190.944 Y105.439
G1 X190.913 Y105.274
G1 X191.046 Y105.134
;WIPE_END
G1 Z2.2 F7800
G1 X209.91 Y103.225
G1 Z.2
;WIDTH:0.348223
G1 F1800
G1 X210.028 Y103.352
G1 X210.206 Y103.337
G1 X210.271 Y103.233
G1 X210.214 Y103.07
G1 X210.012 Y103.071
G1 X209.91 Y103.225
;WIPE_START
G1 F6240
G1 X210.012 Y103.071
G1 X210.214 Y103.07
G1 X210.271 Y103.233
G1 X210.206 Y103.337
G1 X210.028 Y103.352
G1 X209.91 Y103.225
;WIPE_END
G1 Z2.2 F7800
G1 X203.779 Y79.416
G1 Z.2
;WIDTH:0.357147
G1 F1800
G1 X203.891 Y79.317
G1 X203.893 Y79.152
G1 X203.82 Y79.067
G1 X203.668 Y79.084
G1 X203.576 Y79.221
G1 X203.678 Y79.363
G1 X203.779 Y79.416
;WIPE_START
G1 F6240
G1 X203.678 Y79.363
G1 X203.576 Y79.221
G1 X203.668 Y79.084
G1 X203.82 Y79.067
G1 X203.893 Y79.152
G1 X203.891 Y79.317
G1 X203.779 Y79.416
;WIPE_END
G1 Z2.2 F7800
G1 X193.874 Y79.421
G1 Z.2
;WIDTH:0.343308
G1 F1800
G1 X194.017 Y79.321
G1 X194.029 Y79.12
G1 X193.864 Y79.057
G1 X193.739 Y79.143
G1 X193.754 Y79.333
G1 X193.874 Y79.421
G1 X193.874 Y79.421 F7800
G1 X193.884 Y80.114
;WIDTH:0.35476
G1 F1800
G1 X193.801 Y80.07
;WIDTH:0.355338
G1 X193.687 Y79.904
G1 X193.853 Y79.736
G1 X193.993 Y79.808
G1 X194.028 Y79.978
;WIDTH:0.35476
G1 X193.905 Y80.093
G1 X193.905 Y80.093 F7800
G1 X193.194 Y80.122
;WIDTH:0.355107
G1 F1800
G1 X193.092 Y80.068
G1 X192.985 Y79.913
G1 X193.035 Y79.846
G1 X193.131 Y79.789
G1 X193.257 Y79.802
