; generated by PrusaSlicer 2.8.0+win64 on 2024-08-25 at 13:19:32 UTC

; 

; external perimeters extrusion width = 0.23mm
; perimeters extrusion width = 0.23mm
; infill extrusion width = 0.23mm
; solid infill extrusion width = 0.23mm
; top infill extrusion width = 0.20mm
; first layer extrusion width = 0.40mm

;TYPE:Custom
G28
G1 Z5 F5000
G21 ; set units to millimeters
G90 ; use absolute coordinates
; Filament gcode
M107
;LAYER_CHANGE
;Z:0.2
;HEIGHT:0.2
G1 X207.233 Y85.102
G1 Z.2 F7800
;TYPE:External perimeter
;WIDTH:0.22399
G1 F1800
G1 X207.769 Y84.902
;WIDTH:0.234116
G1 X207.945 Y84.846
;WIPE_START
G1 F6240
G1 X207.769 Y84.902
G1 X207.233 Y85.102
;WIPE_END
G1 Z2.2 F7800
G1 X213.266 Y87.181
G1 Z.2
;WIDTH:0.229236
G1 F1800
G1 X213.014 Y86.737
;WIDTH:0.266631
G1 X212.835 Y86.517
;WIDTH:0.304026
G1 X212.656 Y86.297
;WIDTH:0.34142
G1 X212.477 Y86.077
G1 X211.8 Y85.594
;WIDTH:0.31614
G1 X211.1 Y85.249
;WIDTH:0.284028
G1 X210.34 Y84.99
;WIDTH:0.253246
G1 X209.754 Y84.872
;WIDTH:0.246288
G1 X209.248 Y84.814
;WIDTH:0.255116
G1 X209.199 Y84.806
G1 X209.176 Y84.474
;WIDTH:0.278286
G1 X209.415 Y84.444
;WIDTH:0.313976
G1 X209.655 Y84.414
;WIDTH:0.349666
G1 X209.894 Y84.384
G1 X210.682 Y84.391
;WIDTH:0.324362
G1 X211.153 Y84.443
;WIDTH:0.361212
G1 X211.571 Y84.547
;WIDTH:0.402028
G1 X212.049 Y84.741
G1 X212.323 Y84.885
G1 X212.323 Y84.885 F7800
G1 X213.088 Y85.522
;WIDTH:0.251071
G1 F1800
G1 X212.45 Y85.062
;WIDTH:0.26593
G1 X212.418 Y85.018
;WIDTH:0.308566
G1 X212.386 Y84.974
;WIDTH:0.351202
G1 X212.355 Y84.93
;WIDTH:0.393838
G1 X212.323 Y84.885
G1 X212.377 Y84.89
;WIDTH:0.351202
G1 X212.431 Y84.896
;WIDTH:0.308566
G1 X212.485 Y84.901
;WIDTH:0.26593
G1 X212.54 Y84.906
;WIDTH:0.230212
G1 X212.787 Y85.046
;WIDTH:0.251071
G1 X213.213 Y85.356
G1 X213.258 Y85.441
G1 X213.259 Y85.698
G1 X213.109 Y85.543
;WIPE_START
G1 F6240
G1 X213.088 Y85.522
G1 X212.45 Y85.062
G1 X212.418 Y85.018
G1 X212.386 Y84.974
G1 X212.355 Y84.93
G1 X212.323 Y84.885
G1 X212.377 Y84.89
G1 X212.431 Y84.896
G1 X212.485 Y84.901
G1 X212.54 Y84.906
G1 X212.787 Y85.046
G1 X213.213 Y85.356
G1 X213.258 Y85.441
G1 X213.259 Y85.698
G1 X213.109 Y85.543
;WIPE_END
G1 Z2.2 F7800
G1 X207.945 Y84.846
G1 Z.2
;WIDTH:0.269186
G1 F1800
G1 X208.976 Y84.52
;WIDTH:0.263625
G1 X208.995 Y84.535
;WIDTH:0.302843
G1 X209.015 Y84.55
;WIDTH:0.34206
G1 X209.034 Y84.564
G1 X209.075 Y84.536
;WIDTH:0.308302
G1 X209.116 Y84.507
;WIDTH:0.274543
G1 X209.157 Y84.478
G1 X209.116 Y84.507
;WIDTH:0.308302
G1 X209.075 Y84.536
;WIDTH:0.34206
G1 X209.034 Y84.564
G1 X209.053 Y84.581
;WIDTH:0.302843
G1 X209.072 Y84.597
;WIDTH:0.263625
G1 X209.09 Y84.613
;WIDTH:0.267749
G1 X209.068 Y84.647
;WIDTH:0.311091
G1 X209.046 Y84.682
;WIDTH:0.354432
G1 X208.988 Y84.751
;WIDTH:0.30691
G1 X208.953 Y84.785
;WIDTH:0.269186
G1 X208.505 Y84.788
G1 X207.975 Y84.843
;WIPE_START
G1 F6240
G1 X207.945 Y84.846
G1 X208.976 Y84.52
G1 X208.995 Y84.535
G1 X209.015 Y84.55
G1 X209.034 Y84.564
G1 X209.075 Y84.536
G1 X209.116 Y84.507
G1 X209.157 Y84.478
G1 X209.116 Y84.507
G1 X209.075 Y84.536
G1 X209.034 Y84.564
G1 X209.053 Y84.581
G1 X209.072 Y84.597
G1 X209.09 Y84.613
G1 X209.068 Y84.647
G1 X209.046 Y84.682
G1 X208.988 Y84.751
G1 X208.953 Y84.785
G1 X208.505 Y84.788
G1 X207.998 Y84.841
;WIPE_END
G1 Z2.2 F7800
G1 X201.42 Y92.574
G1 Z.2
;WIDTH:0.21292
G1 F1800
G1 X201.058 Y92.199
;WIDTH:0.227082
G1 X200.589 Y91.612
;WIDTH:0.239662
G1 X200.156 Y90.926
;WIDTH:0.26127
G1 X199.787 Y90.153
;WIDTH:0.261582
G1 X199.495 Y89.342
;WIDTH:0.295858
G1 X199.297 Y88.463
G1 X199.198 Y87.864
;WIDTH:0.320152
G1 X199.15 Y87.263
;WIDTH:0.3367
G1 X199.138 Y86.674
G1 X199.156 Y86.11
;WIDTH:0.334112
G1 X199.17 Y85.937
G1 X199.17 Y85.937 F7800
G1 X199.307 Y84.625
;WIDTH:0.280102
G1 F1800
G1 X199.485 Y83.803
;WIDTH:0.313693
G1 X199.607 Y83.508
;WIDTH:0.347284
G1 X199.729 Y83.212
;WIDTH:0.369292
G1 X200.259 Y82.355
G1 X200.651 Y81.902
;WIDTH:0.359838
G1 X201.117 Y81.456
;WIDTH:0.325166
G1 X201.135 Y81.442
;WIDTH:0.323046
G1 X201.982 Y80.852
;WIDTH:0.340758
G1 X202.576 Y80.56
G1 X203.187 Y80.329
;WIDTH:0.294274
G1 X203.488 Y80.248
;WIDTH:0.263788
G1 X203.79 Y80.166
;WIDTH:0.233302
G1 X204.374 Y80.052
;WIDTH:0.21292
G1 X204.915 Y79.995
;WIDTH:0.221336
G1 X205.321 Y79.971
G1 X205.321 Y79.971 F7800
G1 X203.85 Y79.13
;WIDTH:0.392536
G1 F1800
G1 X203.255 Y78.999
;WIDTH:0.393008
G1 X202.73 Y78.955
G1 X202.009 Y78.962
;WIDTH:0.381162
G1 X201.484 Y79.016
;WIDTH:0.360086
G1 X200.966 Y79.129
;WIDTH:0.355494
G1 X200.266 Y79.336
;WIDTH:0.332342
G1 X200.071 Y79.411
;WIDTH:0.29851
G1 X199.876 Y79.485
;WIDTH:0.264678
G1 X199.68 Y79.56
;WIDTH:0.230846
G1 X199.229 Y79.857
;WIDTH:0.21292
G1 X199.158 Y79.929
;WIPE_START
G1 F6240
G1 X199.229 Y79.857
G1 X199.68 Y79.56
G1 X199.876 Y79.485
G1 X200.071 Y79.411
G1 X200.266 Y79.336
G1 X200.966 Y79.129
G1 X201.484 Y79.016
G1 X201.691 Y78.995
;WIPE_END
G1 Z2.2 F7800
G1 X201.027 Y87.561
G1 Z.2
;WIDTH:0.37333
G1 F1800
G1 X200.864 Y87.396
G1 X200.864 Y87.396 F7800
G1 X202.249 Y88.241
;WIDTH:0.288658
G1 F1800
G1 X202.329 Y88.271
;WIDTH:0.328078
G1 X205.656 Y89.375
;WIDTH:0.328246
G1 X205.661 Y89.377
;WIDTH:0.358816
G1 X206.241 Y89.582
;WIDTH:0.389386
G1 X206.821 Y89.787
;WIDTH:0.39196
G1 X208.079 Y90.207
;WIDTH:0.378298
G1 X208.742 Y90.443
;WIDTH:0.343672
G1 X208.774 Y90.452
;WIPE_START
G1 F6240
G1 X208.742 Y90.443
G1 X208.079 Y90.207
G1 X206.821 Y89.787
G1 X206.241 Y89.582
G1 X206.186 Y89.563
;WIPE_END
G1 Z2.2 F7800
G1 X211.239 Y87.829
G1 Z.2
;WIDTH:0.311342
G1 F1800
G1 X211.571 Y88.009
;WIDTH:0.275845
G1 X211.904 Y88.189
;WIDTH:0.240348
G1 X212.832 Y88.815
;WIDTH:0.21292
G1 X213.298 Y89.207
;WIPE_START
G1 F6240
G1 X212.832 Y88.815
G1 X211.904 Y88.189
G1 X211.571 Y88.009
G1 X211.239 Y87.829
;WIPE_END
G1 Z2.2 F7800
G1 X208.707 Y81.755
G1 Z.2
G1 F1800
G1 X208.442 Y81.326
G1 X208.116 Y80.983
;WIDTH:0.23928
G1 X207.889 Y80.826
;WIDTH:0.26564
G1 X207.662 Y80.669
G1 X207.179 Y80.409
;WIDTH:0.261766
G1 X206.555 Y80.159
;WIDTH:0.21292
G1 X206.541 Y80.153
G1 X206.541 Y80.153 F7800
G1 X205.463 Y79.818
;WIDTH:0.302969
G1 F1800
G1 X205.413 Y79.775
;WIDTH:0.266115
G1 X205.363 Y79.732
;WIDTH:0.246017
G1 X204.012 Y79.275
;WIDTH:0.265609
G1 X203.971 Y79.239
;WIDTH:0.307918
G1 X203.931 Y79.203
;WIDTH:0.350227
G1 X203.891 Y79.166
;WIDTH:0.392536
G1 X203.85 Y79.13
G1 X203.904 Y79.123
;WIDTH:0.350227
G1 X203.958 Y79.116
;WIDTH:0.307918
G1 X204.012 Y79.11
;WIDTH:0.265609
G1 X204.065 Y79.103
;WIDTH:0.246017
G1 X204.858 Y79.337
G1 X205.428 Y79.558
;WIDTH:0.266115
G1 X205.543 Y79.631
;WIDTH:0.302969
G1 X206.222 Y80.03
G1 X205.576 Y79.945
G1 X205.533 Y79.959
;WIDTH:0.263793
G1 X205.489 Y79.973
;WIDTH:0.268693
G1 X205.481 Y79.95
;WIDTH:0.31277
G1 X205.473 Y79.928
;WIDTH:0.356847
G1 X205.449 Y79.887
;WIDTH:0.31277
G1 X205.433 Y79.869
;WIDTH:0.268693
G1 X205.417 Y79.852
;WIDTH:0.263793
G1 X205.439 Y79.836
;WIPE_START
G1 F6240
G1 X205.463 Y79.818
G1 X205.413 Y79.775
G1 X205.363 Y79.732
G1 X204.012 Y79.275
G1 X203.971 Y79.239
G1 X203.931 Y79.203
G1 X203.891 Y79.166
G1 X203.85 Y79.13
G1 X203.904 Y79.123
G1 X203.958 Y79.116
G1 X204.012 Y79.11
G1 X204.065 Y79.103
G1 X204.75 Y79.305
;WIPE_END
G1 Z2.2 F7800
G1 X195.013 Y83.57
G1 Z.2
;WIDTH:0.251703
G1 F1800
G1 X195.045 Y83.26
G1 X195.16 Y82.934
;WIDTH:0.264411
G1 X195.358 Y82.612
;WIDTH:0.30751
G1 X195.672 Y82.127
;WIDTH:0.32514
G1 X196.004 Y81.748
;WIDTH:0.325498
G1 X196.381 Y81.38
G1 X197.13 Y80.831
;WIDTH:0.295256
G1 X197.647 Y80.565
;WIDTH:0.269926
G1 X198.178 Y80.419
;WIDTH:0.268201
G1 X198.214 Y80.437
;WIDTH:0.311999
G1 X198.25 Y80.455
;WIDTH:0.355797
G1 X198.286 Y80.473
;WIDTH:0.399594
G1 X198.323 Y80.49
G1 X198.338 Y80.467
;WIDTH:0.356348
G1 X198.353 Y80.443
;WIDTH:0.313101
G1 X198.368 Y80.42
;WIDTH:0.269855
G1 X198.384 Y80.396
;WIDTH:0.245543
G1 X198.673 Y80.376
G1 X198.556 Y80.616
G1 X198.373 Y80.577
;WIDTH:0.269799
G1 X198.362 Y80.555
;WIDTH:0.31299
G1 X198.352 Y80.533
;WIDTH:0.356181
G1 X198.342 Y80.511
;WIDTH:0.399372
G1 X198.331 Y80.489
G1 X198.302 Y80.516
;WIDTH:0.35563
G1 X198.272 Y80.543
;WIDTH:0.311888
G1 X198.243 Y80.57
;WIDTH:0.268146
G1 X198.213 Y80.597
;WIDTH:0.255931
G1 X197.802 Y80.739
;WIDTH:0.294611
G1 X197.441 Y80.937
;WIDTH:0.323866
G1 X196.938 Y81.291
G1 X196.474 Y81.673
;WIDTH:0.320668
G1 X195.874 Y82.299
;WIDTH:0.306277
G1 X195.609 Y82.664
;WIDTH:0.27899
G1 X195.344 Y83.029
;WIDTH:0.251703
G1 X195.029 Y83.544
;WIPE_START
G1 F6240
G1 X195.013 Y83.57
G1 X195.045 Y83.26
G1 X195.16 Y82.934
G1 X195.358 Y82.612
G1 X195.672 Y82.127
G1 X196.004 Y81.748
G1 X196.381 Y81.38
G1 X196.431 Y81.343
;WIPE_END
G1 Z2.2 F7800
G1 X199.397 Y85.725
G1 Z.2
;WIDTH:0.34085
G1 F1800
G1 X199.344 Y85.756
;WIDTH:0.296224
G1 X199.292 Y85.786
;WIDTH:0.300346
G1 X199.265 Y85.77
;WIDTH:0.349094
G1 X199.205 Y85.711
;WIDTH:0.300346
G1 X199.172 Y85.67
;WIDTH:0.291749
G1 X199.199 Y85.619
;WIDTH:0.331901
G1 X199.226 Y85.568
;WIDTH:0.34085
G1 X199.294 Y85.081
G1 X199.511 Y85.506
G1 X199.661 Y85.719
;WIDTH:0.30705
G1 X199.812 Y85.932
;WIDTH:0.273249
G1 X200.131 Y86.39
;WIDTH:0.270036
G1 X200.793 Y87.195
;WIDTH:0.273374
G1 X200.816 Y87.262
;WIDTH:0.323352
G1 X200.84 Y87.329
;WIDTH:0.37333
G1 X200.864 Y87.396
G1 X200.798 Y87.371
;WIDTH:0.323352
G1 X200.731 Y87.346
;WIDTH:0.273374
G1 X200.665 Y87.321
;WIDTH:0.240023
G1 X200.415 Y87.066
;WIDTH:0.27601
G1 X199.885 Y86.451
G1 X199.509 Y85.832
;WIDTH:0.295215
G1 X199.453 Y85.778
;WIDTH:0.34085
G1 X199.418 Y85.745
;WIPE_START
G1 F6240
G1 X199.397 Y85.725
G1 X199.344 Y85.756
G1 X199.292 Y85.786
G1 X199.265 Y85.77
G1 X199.205 Y85.711
G1 X199.172 Y85.67
G1 X199.199 Y85.619
G1 X199.226 Y85.568
G1 X199.294 Y85.081
G1 X199.511 Y85.506
G1 X199.661 Y85.719
G1 X199.812 Y85.932
G1 X200.131 Y86.39
G1 X200.292 Y86.586
;WIPE_END
G1 Z2.2 F7800
G1 X209.007 Y90.122
G1 Z.2
;WIDTH:0.399999
G1 F1800
G1 X207.476 Y89.061
G1 X206.386 Y88.434
G1 X205.426 Y87.946
G1 X204.803 Y87.655
G1 X204.025 Y87.368
G1 X203.466 Y87.256
G1 X203.65 Y87.187
G1 X205.576 Y86.674
G1 X206.146 Y86.592
G1 X206.995 Y86.624
G1 X207.766 Y86.718
G1 X208.541 Y86.86
G1 X209.237 Y87.037
G1 X210.199 Y87.376
G1 X210.951 Y87.705
;WIDTH:0.355671
G1 X211.239 Y87.829
;WIDTH:0.341789
G1 X211.174 Y87.816
;WIDTH:0.372235
G1 X211.109 Y87.802
;WIDTH:0.399999
G1 X210.841 Y88.006
G1 X210.868 Y88.167
G1 X211.384 Y88.861
G1 X211.831 Y89.628
G1 X212.21 Y90.5
G1 X212.79 Y92.017
G1 X212.883 Y92.558
;WIDTH:0.3987
G1 X212.967 Y92.734
;WIDTH:0.392024
G1 X213.001 Y93.273
G1 X212.977 Y93.236
;WIDTH:0.3987
G1 X212.537 Y92.745
;WIDTH:0.399999
G1 X211.875 Y92.149
G1 X211.48 Y91.821
G1 X210.86 Y91.369
G1 X210.167 Y90.959
G1 X209.457 Y90.645
G1 X209.115 Y90.549
;WIDTH:0.371836
G1 X208.774 Y90.452
G1 X208.863 Y90.42
;WIDTH:0.399999
G1 X208.953 Y90.388
G1 X209.006 Y90.288
G1 X209.007 Y90.152
;WIPE_START
G1 F6240
G1 X209.007 Y90.122
G1 X207.476 Y89.061
G1 X206.744 Y88.64
;WIPE_END
G1 Z2.2 F7800
G1 X211.325 Y88.973
G1 Z.2
;TYPE:Solid infill
;WIDTH:0.407241
G1 F1800
G1 X209.902 Y87.549
G1 X209.121 Y87.283
G1 X211.596 Y89.759
G1 X211.986 Y90.664
G1 X208.435 Y87.113
G1 X207.804 Y86.997
G1 X212.307 Y91.5
G1 X212.495 Y92.05
G1 X212.537 Y92.126
G1 X212.562 Y92.271
G1 X207.211 Y86.92
G1 X206.655 Y86.879
G1 X210.798 Y91.022
G1 X210.28 Y90.716
G1 X209.737 Y90.475
G1 X206.134 Y86.873
G1 X205.677 Y86.931
G1 X207.531 Y88.785
G1 X206.336 Y88.105
G1 X205.265 Y87.034
G1 X204.858 Y87.142
G1 X205.645 Y87.93
;WIPE_START
G1 F6240
G1 X204.858 Y87.142
G1 X205.265 Y87.034
G1 X206.115 Y87.884
;WIPE_END
G1 Z2.2 F7800
G1 X201.181 Y76.767
G1 Z.2
;TYPE:External perimeter
;WIDTH:0.382353
G1 F1800
G1 X201.163 Y76.063
G1 X201.071 Y75.719
G1 X201.21 Y75.663
G1 X201.439 Y75.48
G1 X201.577 Y75.546
G1 X201.351 Y76.08
G1 X201.189 Y76.738
G1 X201.189 Y76.738 F7800
G1 X199.47 Y76.74
;WIDTH:0.369596
G1 F1800
G1 X199.514 Y76.509
;WIDTH:0.326791
G1 X199.558 Y76.278
;WIDTH:0.283986
G1 X199.736 Y75.953
;WIDTH:0.234694
G1 X199.946 Y75.702
G1 X199.946 Y75.702 F7800
G1 X199.47 Y76.74
;WIDTH:0.369596
G1 F1800
G1 X199.504 Y76.804
;WIDTH:0.320867
G1 X199.537 Y76.869
;WIDTH:0.272138
G1 X199.571 Y76.933
;WIDTH:0.227948
G1 X199.604 Y77.177
G1 X199.576 Y77.335
G1 X199.481 Y77.24
G1 X199.392 Y77.016
;WIDTH:0.275164
G1 X199.418 Y76.924
;WIDTH:0.32238
G1 X199.444 Y76.832
;WIDTH:0.369596
G1 X199.462 Y76.768
;WIPE_START
G1 F6240
G1 X199.47 Y76.74
G1 X199.504 Y76.804
G1 X199.537 Y76.869
G1 X199.571 Y76.933
G1 X199.604 Y77.177
G1 X199.576 Y77.335
G1 X199.481 Y77.24
G1 X199.392 Y77.016
G1 X199.418 Y76.924
G1 X199.444 Y76.832
G1 X199.462 Y76.768
;WIPE_END
G1 Z2.2 F7800
G1 X193.241 Y98.128
G1 Z.2
;WIDTH:0.253609
G1 F1800
G1 X193.366 Y97.613
;WIDTH:0.294298
G1 X193.49 Y97.099
;WIDTH:0.334986
G1 X193.615 Y96.585
;WIDTH:0.364924
G1 X193.754 Y96.085
;WIDTH:0.372206
G1 X193.954 Y95.516
G1 X194.084 Y95.253
;WIDTH:0.341683
G1 X194.215 Y94.99
;WIDTH:0.31116
G1 X194.522 Y94.418
;WIDTH:0.269732
G1 X194.538 Y94.388
;WIDTH:0.275024
G1 X195.082 Y93.382
;WIDTH:0.292818
G1 X195.504 Y92.715
;WIDTH:0.300382
G1 X196.116 Y92.014
G1 X196.383 Y91.793
;WIDTH:0.267859
G1 X196.65 Y91.571
;WIPE_START
G1 F6240
G1 X196.383 Y91.793
G1 X196.116 Y92.014
G1 X195.504 Y92.715
G1 X195.082 Y93.382
G1 X194.928 Y93.666
;WIPE_END
G1 Z2.2 F7800
G1 X194.107 Y92.581
G1 Z.2
;WIDTH:0.276882
G1 F1800
G1 X194.14 Y92.007
G1 X194.147 Y91.157
;WIDTH:0.26845
G1 X194.085 Y89.911
;WIDTH:0.29039
G1 X194.03 Y89.368
;WIDTH:0.311944
G1 X194.024 Y89.242
;WIPE_START
G1 F6240
G1 X194.03 Y89.368
G1 X194.085 Y89.911
G1 X194.147 Y91.157
G1 X194.14 Y91.974
;WIPE_END
G1 Z2.2 F7800
G1 X194.544 Y83.893
G1 Z.2
;WIDTH:0.289014
G1 F1800
G1 X194.444 Y83.516
;WIDTH:0.33486
G1 X194.343 Y83.138
;WIDTH:0.363366
G1 X194.194 Y82.177
;WIDTH:0.384904
G1 X194.172 Y81.805
;WIPE_START
G1 F6240
G1 X194.194 Y82.177
G1 X194.343 Y83.138
G1 X194.444 Y83.516
G1 X194.544 Y83.893
;WIPE_END
G1 Z2.2 F7800
G1 X194.231 Y79.387
G1 Z.2
;WIDTH:0.247258
G1 F1800
G1 X193.847 Y79.452
;WIDTH:0.285807
G1 X193.544 Y79.584
;WIDTH:0.324356
G1 X193.241 Y79.715
;WIDTH:0.352504
G1 X193.021 Y79.851
;WIDTH:0.380652
G1 X192.802 Y79.988
;WIDTH:0.384764
G1 X192.202 Y80.541
;WIDTH:0.40141
G1 X191.893 Y80.921
G1 X191.592 Y81.487
;WIDTH:0.372662
G1 X191.412 Y81.983
;WIDTH:0.350404
G1 X191.299 Y82.486
;WIDTH:0.339672
G1 X191.258 Y83.014
;WIDTH:0.320914
G1 X191.296 Y83.734
;WIDTH:0.311976
G1 X191.43 Y84.447
;WIDTH:0.281488
G1 X191.613 Y85.077
;WIDTH:0.248084
G1 X191.836 Y85.645
;WIDTH:0.21292
G1 X191.901 Y85.777
;WIDTH:0.261047
G1 X191.898 Y85.824
;WIDTH:0.309173
G1 X191.895 Y85.871
;WIDTH:0.3573
G1 X191.893 Y85.918
;WIDTH:0.405426
G1 X191.89 Y85.966
;WIDTH:0.453552
G1 X191.888 Y86.013
G1 X191.997 Y86.16
;WIDTH:0.41389
G1 X192.106 Y86.308
;WIDTH:0.374228
G1 X192.36 Y86.67
;WIDTH:0.338752
G1 X192.613 Y87.032
;WIDTH:0.303276
G1 X192.867 Y87.394
;WIDTH:0.2678
G1 X193.19 Y87.794
;WIDTH:0.24036
G1 X193.514 Y88.194
;WIDTH:0.216848
G1 X193.555 Y88.245
;WIPE_START
G1 F6240
G1 X193.514 Y88.194
G1 X193.19 Y87.794
G1 X192.867 Y87.394
G1 X192.613 Y87.032
G1 X192.36 Y86.67
G1 X192.106 Y86.308
G1 X191.997 Y86.16
G1 X191.918 Y86.053
;WIPE_END
G1 Z2.2 F7800
G1 X189.75 Y84.813
G1 Z.2
;WIDTH:0.21292
G1 F1800
G1 X190.08 Y84.893
G1 X190.842 Y85.255
;WIDTH:0.25808
G1 X190.879 Y85.333
;WIDTH:0.30324
G1 X190.917 Y85.412
G1 X191.1 Y85.517
;WIDTH:0.269915
G1 X191.283 Y85.623
;WIDTH:0.23659
G1 X191.674 Y85.944
;WIDTH:0.27617
G1 X191.716 Y85.958
;WIDTH:0.320516
G1 X191.759 Y85.972
;WIDTH:0.364861
G1 X191.802 Y85.985
;WIDTH:0.409207
G1 X191.845 Y85.999
;WIDTH:0.453552
G1 X191.888 Y86.013
;WIPE_START
G1 F6240
G1 X191.845 Y85.999
G1 X191.802 Y85.985
G1 X191.759 Y85.972
G1 X191.716 Y85.958
G1 X191.674 Y85.944
G1 X191.283 Y85.623
G1 X191.1 Y85.517
G1 X190.917 Y85.412
G1 X190.879 Y85.333
G1 X190.842 Y85.255
G1 X190.08 Y84.893
G1 X189.75 Y84.813
;WIPE_END
G1 Z2.2 F7800
G1 X188.828 Y86.2
G1 Z.2
;WIDTH:0.225748
G1 F1800
G1 X189.531 Y86.57
;WIDTH:0.23424
G1 X190 Y86.858
;WIDTH:0.249452
G1 X190.507 Y87.26
;WIDTH:0.275952
G1 X191.058 Y87.783
;WIDTH:0.293498
G1 X191.409 Y88.157
;WIDTH:0.310608
G1 X191.742 Y88.554
;WIDTH:0.327094
G1 X192.056 Y88.972
;WIDTH:0.343404
G1 X192.349 Y89.406
;WIDTH:0.358672
G1 X192.619 Y89.856
;WIDTH:0.370914
G1 X192.866 Y90.318
